resources/assets/icons/transaction/contract.svg

<svg viewBox="0 0 12 13" xmlns="http://www.w3.org/2000/svg">
<path fill-rule="evenodd" clip-rule="evenodd" d="M11.1908 4.00987C11.3257 4.14484 11.4015 4.32784 11.4016 4.51867V10.8215C11.401 11.4169 10.9188 11.8995 10.3235 11.9006H1.68348C1.39688 11.9011 1.12183 11.7877 0.918906 11.5853C0.715979 11.3829 0.601817 11.1081 0.601563 10.8215V2.18155C0.601307 1.89461 0.715244 1.61937 0.918226 1.41657C1.12121 1.21377 1.39655 1.10008 1.68348 1.10059H7.98348C8.17447 1.1005 8.35767 1.1763 8.49276 1.31131L11.1908 4.00987Z" stroke="currentColor" stroke-width="1.2" stroke-linecap="round" stroke-linejoin="round" fill="none"/>
<path d="M6.00098 5.80157L3.21484 5.80176" stroke="currentColor" stroke-width="1.2" stroke-linecap="round" stroke-linejoin="round" fill="none"/>
<path d="M9.00391 8.74981L3.00391 8.75" stroke="currentColor" stroke-width="1.2" stroke-linecap="round" stroke-linejoin="round" fill="none"/>
<path d="M7.80078 1.10059V3.80059C7.80078 4.29764 8.20372 4.70059 8.70078 4.70059H11.4008" stroke="currentColor" stroke-width="1.2" stroke-linecap="round" stroke-linejoin="round" fill="none"/>
</svg>

<svg viewBox="0 0 12 13" xmlns="http://www.w3.org/2000/svg"><path clip-rule="evenodd" d="M11.19 4.01a.72.72 0 0 1 .212.509v6.303a1.08 1.08 0 0 1-1.079 1.079h-8.64a1.08 1.08 0 0 1-1.081-1.08v-8.64a1.08 1.08 0 0 1 1.081-1.08h6.3a.72.72 0 0 1 .51.21L11.19 4.01Z" stroke="currentColor" stroke-width="1.2" stroke-linecap="round" stroke-linejoin="round" fill="none"/><path d="M6.001 5.802H3.215M9.004 8.75h-6M7.8 1.1v2.7a.9.9 0 0 0 .9.9h2.7" stroke="currentColor" stroke-width="1.2" stroke-linecap="round" stroke-linejoin="round" fill="none"/></svg>
